assets/home-tab/Asset/settings.svg

<svg width="15" height="15" viewBox="0 0 15 15" fill="none" xmlns="http://www.w3.org/2000/svg">
<path d="M7.94618 0C8.77455 0 9.44618 0.671539 9.44618 1.5V2.01465C9.44618 2.59182 10.0713 2.95322 10.5712 2.66504L11.1425 2.33496C11.8598 1.92083 12.777 2.16661 13.1913 2.88379L14.1913 4.61621C14.6055 5.33362 14.3599 6.25085 13.6425 6.66504L13.3212 6.85059C12.8216 7.13943 12.8223 7.86083 13.3222 8.14941L13.6425 8.33496C14.3599 8.74924 14.6055 9.66638 14.1913 10.3838L13.1913 12.1162C12.777 12.8333 11.8597 13.0792 11.1425 12.665L10.5712 12.335C10.0714 12.0468 9.4465 12.4075 9.44618 12.9844V13.5C9.44618 14.3285 8.77455 15 7.94618 15H6.44618C5.61797 14.9998 4.94618 14.3283 4.94618 13.5V12.9844C4.94585 12.4073 4.32105 12.0464 3.82118 12.335L3.25086 12.665C2.53348 13.0792 1.61526 12.8336 1.20106 12.1162L0.201059 10.3838C-0.212877 9.66653 0.0328303 8.74929 0.749887 8.33496L1.07118 8.14941C1.57118 7.86073 1.5712 7.13925 1.07118 6.85059L0.749887 6.66504C0.0328226 6.25082 -0.21283 5.33347 0.201059 4.61621L1.20106 2.88379C1.61524 2.16638 2.53346 1.92078 3.25086 2.33496L3.82118 2.66504C4.32118 2.95371 4.94618 2.592 4.94618 2.01465V1.5C4.94618 0.671661 5.61797 0.000196535 6.44618 0H7.94618ZM7.19715 5.25C5.95451 5.25 4.94715 6.25736 4.94715 7.5C4.94735 8.74247 5.95463 9.75 7.19715 9.75C8.43948 9.74978 9.44696 8.74233 9.44715 7.5C9.44715 6.2575 8.4396 5.25022 7.19715 5.25Z" fill="#1F589A"/>
</svg>

<svg xmlns="http://www.w3.org/2000/svg" width="15" height="15" fill="none" viewBox="0 0 15 15"><path fill="#1f589a" d="M7.946 0a1.5 1.5 0 0 1 1.5 1.5v.515a.75.75 0 0 0 1.125.65l.572-.33a1.5 1.5 0 0 1 2.048.549l1 1.732a1.5 1.5 0 0 1-.549 2.049l-.32.186a.75.75 0 0 0 0 1.298l.32.186a1.5 1.5 0 0 1 .55 2.049l-1 1.732a1.5 1.5 0 0 1-2.05.549l-.57-.33a.75.75 0 0 0-1.126.65v.515a1.5 1.5 0 0 1-1.5 1.5h-1.5a1.5 1.5 0 0 1-1.5-1.5v-.516a.75.75 0 0 0-1.125-.649l-.57.33a1.5 1.5 0 0 1-2.05-.549l-1-1.732A1.5 1.5 0 0 1 .75 8.335l.321-.186a.75.75 0 0 0 0-1.298L.75 6.665A1.5 1.5 0 0 1 .2 4.616l1-1.732a1.5 1.5 0 0 1 2.05-.549l.57.33a.75.75 0 0 0 1.125-.65V1.5a1.5 1.5 0 0 1 1.5-1.5zm-.749 5.25a2.25 2.25 0 1 0 0 4.5 2.25 2.25 0 0 0 0-4.5"/></svg>
